svg/u1f6e3.svg

<svg viewBox="0 0 128 128" xmlns="http://www.w3.org/2000/svg">
  <path d="M32.17,68.27l16.3-2.68c0,0-6.18-6.77-14.44-8.56S22.2,55.54,22.2,55.54s-6.1-3.87-10.27-5.14 s-8.05-0.77-8.05-0.77l-0.04,17.4L32.17,68.27z" fill="#A1D1DA"/>
  <path d="M94.56,69.98l-14.6-4.78c0,0,9.33-6.72,14.42-8.08c5.37-1.43,11.29-0.87,11.29-0.87 s4.43-3.89,9.55-5.89s8.97-2.07,8.97-2.07l-0.01,17.54c0,0-5.07,5.91-5.17,5.77C118.93,71.45,94.56,69.98,94.56,69.98z" fill="#A1D1DA"/>
  <path d="M99.16,65c0,0,2.6-3.99,5.61-4.23c3.97-0.31,5.35,0.7,5.35,0.7s1.9-1.39,3.66-1.34 c2.53,0.07,4.01,2.53,4.01,2.53s1.2-3.49,2.6-3.45c2.39,0.07,2.74,6.06,2.74,6.06l-8.13,3.11L99.16,65z" fill="#518E2C"/>
  <path d="M4.75,65.86c0,0,2.14-6.42,3.62-6.35c1.48,0.07,2.6,2.89,2.6,2.89s1.42-7.31,3.6-7.31 c2.04,0,3.36,10.2,3.36,10.2l2.96,1.27l3.44-0.85c0,0,1.62-4.36,2.75-4.29c1.06,0.07,1.76,2.25,1.76,2.25s0.77-4.15,2.39-4.15 c1.83,0,2.96,5.98,2.96,5.98L18.36,70.9L4.75,65.86z" fill="#518E2C"/>
  <path d="M124.2,64.68l0.01,51.99c0,4.15-3.37,7.52-7.52,7.52H11.38c-4.15,0-7.52-3.37-7.52-7.52L3.83,65.39 L124.2,64.68z" fill="#7DB240"/>
  <path d="M48.49,65.14c0,0,6.33-0.14,16.83-0.15c10.19-0.01,15.67-0.05,15.67-0.05l33.78,59.26l-102.42,0 L48.49,65.14z" fill="#5E6367"/>
  <polygon points="18.41,124.2 50.46,65.1 51.51,65.07 52.74,65.07 22.22,124.21 20.42,124.24 " fill="#FFFFFF"/>
  <polygon points="79.49,64.94 78.17,64.92 76.69,64.95 106.14,124.2 107.63,124.2 109.3,124.2 " fill="#FFFFFF"/>
  <polygon points="45.63,120.07 49.97,120.17 52.91,106.6 48.87,106.55 " fill="#FFFFFF"/>
  <polygon points="75.07,106.9 78.99,106.83 81.94,120.12 76.95,120.12 " fill="#FFFFFF"/>
  <polygon points="74.11,101.3 78,101.2 75.55,90.37 72.3,90.37 " fill="#FFFFFF"/>
  <polygon points="56.26,90.13 52.91,90.13 50.32,101.36 53.91,101.36 " fill="#FFFFFF"/>
  <polygon points="55.91,77.76 58.8,77.81 57.26,85.39 53.91,85.44 " fill="#FFFFFF"/>
  <path d="M57.86,70.07c-0.1,0.25-1.15,4.49-1.15,4.49h2.84l0.75-4.49H57.86z" fill="#FFFFFF"/>
  <path d="M58.5,67.83h2.4L61.38,65c0,0-0.88-0.01-1.19-0.01c-0.31,0-1.02,0.02-1.02,0.02L58.5,67.83z" fill="#FFFFFF"/>
  <polygon points="68.83,67.82 71.48,67.82 70.9,64.97 69.68,64.95 68.5,64.98 " fill="#FFFFFF"/>
  <polygon points="69.47,70.33 71.8,70.28 72.73,74.61 69.99,74.66 " fill="#FFFFFF"/>
  <polygon points="70.59,77.82 73.29,77.73 74.82,85.63 71.47,85.68 " fill="#FFFFFF"/>
  <polygon points="17.47,20.21 17.47,80.23 23.18,80.23 23.18,19.12 " fill="#9A9A9A"/>
  <polygon points="104.49,82.68 104.89,19.83 110.62,20.23 110.32,82.68 " fill="#9A9A9A"/>
  <path d="M113.13,21.36H13.98c-1.1,0-2-0.9-2-2s0.9-2,2-2h99.14c1.1,0,2,0.9,2,2S114.23,21.36,113.13,21.36z" fill="#C8C8C8"/>
  <path d="M14.1,40.92c-1.1,0-2-0.89-2-2c0-1.1,0.89-2,2-2l99.38-0.12c0,0,0,0,0,0c1.1,0,2,0.89,2,2 c0,1.1-0.89,2-2,2L14.1,40.92C14.1,40.92,14.1,40.92,14.1,40.92z" fill="#C8C8C8"/>
  <rect height="3.5" fill="#C8C8C8" transform="matrix(0.7071 -0.7071 0.7071 0.7071 8.5675 77.5432)" width="25.66" x="85.06" y="26.68"/>
  <rect height="25.61" fill="#C8C8C8" transform="matrix(0.7071 -0.7071 0.7071 0.7071 -11.5331 30.1085)" width="3.5" x="28.83" y="16.17"/>
  <path d="M90.79,48.61h-53.9c-2.01,0-3.64-1.63-3.64-3.64V11.84c0-2.01,1.63-3.64,3.64-3.64h53.9 c2.01,0,3.64,1.63,3.64,3.64v33.13C94.43,46.98,92.8,48.61,90.79,48.61z" fill="#DFE1E0"/>
  <polygon points="36.39,45.46 36.68,10.87 91.19,11.06 91.19,45.37 " fill="#1B9372"/>
  <path d="M69.81,25.49l0.16-8.6h14.87v8.68C84.84,25.57,69.89,25.41,69.81,25.49z" fill="#85D59E"/>
  <path d="M45.11,20.98c0,3.54,2.81,5.79,5.95,5.79c3.13,0,5.71-2.25,5.71-5.87s-3.29-5.87-5.71-5.87 C47.92,15.03,45.11,17.2,45.11,20.98z" fill="#85D59E"/>
  <path d="M48.62,29.18h5.06v5.22c0,0,5.95-2.17,6.43-1.61s-7.8,9.24-8.76,9.24c-0.96,0-9.81-8.52-9.48-9.16 c0.32-0.64,6.75,1.21,6.75,1.21V29.18z" fill="#FEFFFE"/>
  <path d="M75.15,29.5h5.06v5.22c0,0,5.95-2.17,6.43-1.61c0.48,0.56-7.8,9.24-8.76,9.24 c-0.96,0-9.81-8.52-9.48-9.16c0.32-0.64,6.75,1.21,6.75,1.21V29.5z" fill="#FEFFFE"/>
</svg>

<svg viewBox="0 0 128 128" xmlns="http://www.w3.org/2000/svg">
  <defs/>
  <path d="M32.17,68.27 L48.47,65.59 C48.47,65.59 42.29,58.82 34.03,57.03 C25.77,55.24 22.2,55.54 22.2,55.54 C22.2,55.54 16.1,51.67 11.93,50.4 C7.76,49.13 3.88,49.63 3.88,49.63 L3.84,67.03 L32.17,68.27 Z" fill="#A1D1DA"/>
  <path d="M94.56,69.98 L79.96,65.2 C79.96,65.2 89.29,58.48 94.38,57.12 C99.75,55.69 105.67,56.25 105.67,56.25 C105.67,56.25 110.1,52.36 115.22,50.36 C120.34,48.36 124.19,48.29 124.19,48.29 L124.18,65.83 C124.18,65.83 119.11,71.74 119.01,71.6 C118.93,71.45 94.56,69.98 94.56,69.98 Z" fill="#A1D1DA"/>
  <path d="M99.16,65 C99.16,65 101.76,61.01 104.77,60.77 C108.74,60.46 110.12,61.47 110.12,61.47 C110.12,61.47 112.02,60.08 113.78,60.13 C116.31,60.2 117.79,62.66 117.79,62.66 C117.79,62.66 118.99,59.17 120.39,59.21 C122.78,59.28 123.13,65.27 123.13,65.27 L115,68.38 L99.16,65 Z" fill="#518E2C"/>
  <path d="M4.75,65.86 C4.75,65.86 6.89,59.44 8.37,59.51 C9.85,59.58 10.97,62.4 10.97,62.4 C10.97,62.4 12.39,55.09 14.57,55.09 C16.61,55.09 17.93,65.29 17.93,65.29 L20.89,66.56 L24.33,65.71 C24.33,65.71 25.95,61.35 27.08,61.42 C28.14,61.49 28.84,63.67 28.84,63.67 C28.84,63.67 29.61,59.52 31.23,59.52 C33.06,59.52 34.19,65.5 34.19,65.5 L18.36,70.9 L4.75,65.86 Z" fill="#518E2C"/>
  <path d="M124.2,64.68 L124.21,116.67 C124.21,120.82 120.84,124.19 116.69,124.19 L11.38,124.19 C7.23,124.19 3.86,120.82 3.86,116.67 L3.83,65.39 L124.2,64.68 Z" fill="#7DB240"/>
  <path d="M48.49,65.14 C48.49,65.14 54.82,65 65.32,64.99 C75.51,64.98 80.99,64.94 80.99,64.94 L114.77,124.2 L12.35,124.2 L48.49,65.14 Z" fill="#5E6367"/>
  <path d="M18.41,124.2 L50.46,65.1 L51.51,65.07 L52.74,65.07 L22.22,124.21 L20.42,124.24 Z" fill="#FFFFFF"/>
  <path d="M79.49,64.94 L78.17,64.92 L76.69,64.95 L106.14,124.2 L107.63,124.2 L109.3,124.2 Z" fill="#FFFFFF"/>
  <path d="M45.63,120.07 L49.97,120.17 L52.91,106.6 L48.87,106.55 Z" fill="#FFFFFF"/>
  <path d="M75.07,106.9 L78.99,106.83 L81.94,120.12 L76.95,120.12 Z" fill="#FFFFFF"/>
  <path d="M74.11,101.3 L78,101.2 L75.55,90.37 L72.3,90.37 Z" fill="#FFFFFF"/>
  <path d="M56.26,90.13 L52.91,90.13 L50.32,101.36 L53.91,101.36 Z" fill="#FFFFFF"/>
  <path d="M55.91,77.76 L58.8,77.81 L57.26,85.39 L53.91,85.44 Z" fill="#FFFFFF"/>
  <path d="M57.86,70.07 C57.76,70.32 56.71,74.56 56.71,74.56 L59.55,74.56 L60.3,70.07 L57.86,70.07 Z" fill="#FFFFFF"/>
  <path d="M58.5,67.83 L60.9,67.83 L61.38,65 C61.38,65 60.5,64.99 60.19,64.99 C59.88,64.99 59.17,65.01 59.17,65.01 L58.5,67.83 Z" fill="#FFFFFF"/>
  <path d="M68.83,67.82 L71.48,67.82 L70.9,64.97 L69.68,64.95 L68.5,64.98 Z" fill="#FFFFFF"/>
  <path d="M69.47,70.33 L71.8,70.28 L72.73,74.61 L69.99,74.66 Z" fill="#FFFFFF"/>
  <path d="M70.59,77.82 L73.29,77.73 L74.82,85.63 L71.47,85.68 Z" fill="#FFFFFF"/>
  <path d="M17.47,20.21 L17.47,80.23 L23.18,80.23 L23.18,19.12 Z" fill="#9A9A9A"/>
  <path d="M104.49,82.68 L104.89,19.83 L110.62,20.23 L110.32,82.68 Z" fill="#9A9A9A"/>
  <path d="M113.13,21.36 L13.98,21.36 C12.88,21.36 11.98,20.46 11.98,19.36 C11.98,18.26 12.88,17.36 13.98,17.36 L113.12,17.36 C114.22,17.36 115.12,18.26 115.12,19.36 C115.12,20.46 114.23,21.36 113.13,21.36 Z" fill="#C8C8C8"/>
  <path d="M14.1,40.92 C13,40.92 12.1,40.03 12.1,38.92 C12.1,37.82 12.99,36.92 14.1,36.92 L113.48,36.8 C113.48,36.8 113.48,36.8 113.48,36.8 C114.58,36.8 115.48,37.69 115.48,38.8 C115.48,39.9 114.59,40.8 113.48,40.8 L14.1,40.92 C14.1,40.92 14.1,40.92 14.1,40.92 Z" fill="#C8C8C8"/>
  <path d="M87.579,36.263 L105.723,18.119 L108.198,20.593 L90.054,38.738 L87.579,36.263 Z" fill="#C8C8C8"/>
  <path d="M20.286,21.157 L22.761,18.682 L40.87,36.791 L38.395,39.265 L20.286,21.157 Z" fill="#C8C8C8"/>
  <path d="M90.79,48.61 L36.89,48.61 C34.88,48.61 33.25,46.98 33.25,44.97 L33.25,11.84 C33.25,9.83 34.88,8.2 36.89,8.2 L90.79,8.2 C92.8,8.2 94.43,9.83 94.43,11.84 L94.43,44.97 C94.43,46.98 92.8,48.61 90.79,48.61 Z" fill="#DFE1E0"/>
  <path d="M36.39,45.46 L36.68,10.87 L91.19,11.06 L91.19,45.37 Z" fill="#1B9372"/>
  <path d="M69.81,25.49 L69.97,16.89 L84.84,16.89 L84.84,25.57 C84.84,25.57 69.89,25.41 69.81,25.49 Z" fill="#85D59E"/>
  <path d="M45.11,20.98 C45.11,24.52 47.92,26.77 51.06,26.77 C54.19,26.77 56.77,24.52 56.77,20.9 C56.77,17.28 53.48,15.03 51.06,15.03 C47.92,15.03 45.11,17.2 45.11,20.98 Z" fill="#85D59E"/>
  <path d="M48.62,29.18 L53.68,29.18 L53.68,34.4 C53.68,34.4 59.63,32.23 60.11,32.79 C60.59,33.35 52.31,42.03 51.35,42.03 C50.39,42.03 41.54,33.51 41.87,32.87 C42.19,32.23 48.62,34.08 48.62,34.08 L48.62,29.18 Z" fill="#FEFFFE"/>
  <path d="M75.15,29.5 L80.21,29.5 L80.21,34.72 C80.21,34.72 86.16,32.55 86.64,33.11 C87.12,33.67 78.84,42.35 77.88,42.35 C76.92,42.35 68.07,33.83 68.4,33.19 C68.72,32.55 75.15,34.4 75.15,34.4 L75.15,29.5 Z" fill="#FEFFFE"/>
</svg>
